packages/kaspersky-hexa-ui-icons/src/iconsSVGs/24/Gmail2Color.svg

<svg width="24" height="24" viewBox="0 0 24 24" fill="none" xmlns="http://www.w3.org/2000/svg">
<path d="M20.3588 5C21.2599 5 21.9972 5.71337 21.9972 6.58523V7.04479L19.7209 8.618L11.9713 13.783L4.22172 8.56561V19H3.63844C2.73733 19 2 18.2866 2 17.4148V6.58567C2 5.7138 2.73733 5.00042 3.63844 5.00042L11.9713 10.978L20.3588 5Z" fill="#E75A4D"/>
<path d="M3.63844 5.00042L11.9713 10.978L20.3588 5L3.63844 5.00042Z" fill="url(#paint0_linear_20816_2271)"/>
<path d="M4.22172 8.56561V19L19.7215 19L19.7209 8.618L11.9713 13.783L4.22172 8.56561Z" fill="#E7E4D7"/>
<path d="M4.22172 19L11.9713 13.783L11.9362 13.759L4.22167 18.8854L4.22172 19Z" fill="#B8B7AE"/>
<path d="M19.7209 8.618L19.7259 19L11.9713 13.783L19.7209 8.618Z" fill="#B7B6AD"/>
<path d="M21.9972 7.04479L22 17.4161C21.9609 18.5688 21.4447 18.9806 19.7259 19L19.7209 8.618L21.9972 7.04479Z" fill="#B2392F"/>
<path d="M3.63844 5.00042L11.9713 10.978L20.3588 5L3.63844 5.00042Z" fill="url(#paint1_linear_20816_2271)"/>
<path d="M3.63844 5.00042L11.9713 10.978L20.3588 5L3.63844 5.00042Z" fill="url(#paint2_linear_20816_2271)"/>
<path d="M3.63844 5.00042L11.9713 10.978L20.3588 5L3.63844 5.00042Z" fill="url(#paint3_linear_20816_2271)"/>
<path d="M3.63844 5.00042L11.9713 10.978L20.3588 5L3.63844 5.00042Z" fill="url(#paint4_linear_20816_2271)"/>
<path d="M3.63844 5.00042L11.9713 10.978L20.3588 5L3.63844 5.00042Z" fill="url(#paint5_linear_20816_2271)"/>
<path d="M3.63844 5.00042L11.9713 10.978L20.3588 5L3.63844 5.00042Z" fill="url(#paint6_linear_20816_2271)"/>
<path d="M3.63844 5.00042L11.9713 10.978L20.3588 5L3.63844 5.00042Z" fill="url(#paint7_linear_20816_2271)"/>
<path d="M3.63844 5.00042L11.9713 10.978L20.3588 5L3.63844 5.00042Z" fill="#F7F5ED"/>
<defs>
<linearGradient id="paint0_linear_20816_2271" x1="5.59843" y1="12.0012" x2="18.3773" y2="12.0012" gradientUnits="userSpaceOnUse">
<stop stop-color="#F8F6EF"/>
<stop offset="1" stop-color="#E7E4D6"/>
</linearGradient>
<linearGradient id="paint1_linear_20816_2271" x1="5.59843" y1="12.0012" x2="18.3773" y2="12.0012" gradientUnits="userSpaceOnUse">
<stop stop-color="#F8F6EF"/>
<stop offset="1" stop-color="#E7E4D6"/>
</linearGradient>
<linearGradient id="paint2_linear_20816_2271" x1="5.59843" y1="12.0012" x2="18.3773" y2="12.0012" gradientUnits="userSpaceOnUse">
<stop stop-color="#F8F6EF"/>
<stop offset="1" stop-color="#E7E4D6"/>
</linearGradient>
<linearGradient id="paint3_linear_20816_2271" x1="5.59843" y1="12.0012" x2="18.3773" y2="12.0012" gradientUnits="userSpaceOnUse">
<stop stop-color="#F8F6EF"/>
<stop offset="1" stop-color="#E7E4D6"/>
</linearGradient>
<linearGradient id="paint4_linear_20816_2271" x1="5.59843" y1="12.0012" x2="18.3773" y2="12.0012" gradientUnits="userSpaceOnUse">
<stop stop-color="#F8F6EF"/>
<stop offset="1" stop-color="#E7E4D6"/>
</linearGradient>
<linearGradient id="paint5_linear_20816_2271" x1="5.59843" y1="12.0012" x2="18.3773" y2="12.0012" gradientUnits="userSpaceOnUse">
<stop stop-color="#F8F6EF"/>
<stop offset="1" stop-color="#E7E4D6"/>
</linearGradient>
<linearGradient id="paint6_linear_20816_2271" x1="5.59843" y1="12.0012" x2="18.3773" y2="12.0012" gradientUnits="userSpaceOnUse">
<stop stop-color="#F8F6EF"/>
<stop offset="1" stop-color="#E7E4D6"/>
</linearGradient>
<linearGradient id="paint7_linear_20816_2271" x1="5.59843" y1="12.0012" x2="18.3773" y2="12.0012" gradientUnits="userSpaceOnUse">
<stop stop-color="#F8F6EF"/>
<stop offset="1" stop-color="#E7E4D6"/>
</linearGradient>
</defs>
</svg>

<svg xmlns="http://www.w3.org/2000/svg" width="24" height="24" fill="none" viewBox="0 0 24 24"><path fill="#e75a4d" d="M20.3588 5c.9011 0 1.6384.7134 1.6384 1.5852v.4596L19.7209 8.618l-7.7496 5.165-7.7496-5.2174V19h-.5833C2.7374 19 2 18.2866 2 17.4148V6.5857c0-.8719.7373-1.5853 1.6384-1.5853l8.3329 5.9776z"/><path fill="url(#a)" d="m3.6384 5.0004 8.3329 5.9776L20.3588 5z"/><path fill="#e7e4d7" d="M4.2217 8.5656V19h15.4998l-.0006-10.382-7.7496 5.165z"/><path fill="#b8b7ae" d="m4.2217 19 7.7496-5.217-.0351-.024-7.7145 5.1264z"/><path fill="#b7b6ad" d="M19.7209 8.618 19.7259 19l-7.7546-5.217z"/><path fill="#b2392f" d="M21.9972 7.0448 22 17.416c-.0391 1.1527-.5553 1.5645-2.2741 1.5839l-.005-10.382z"/><path fill="url(#b)" d="m3.6384 5.0004 8.3329 5.9776L20.3588 5z"/><path fill="url(#c)" d="m3.6384 5.0004 8.3329 5.9776L20.3588 5z"/><path fill="url(#d)" d="m3.6384 5.0004 8.3329 5.9776L20.3588 5z"/><path fill="url(#e)" d="m3.6384 5.0004 8.3329 5.9776L20.3588 5z"/><path fill="url(#f)" d="m3.6384 5.0004 8.3329 5.9776L20.3588 5z"/><path fill="url(#g)" d="m3.6384 5.0004 8.3329 5.9776L20.3588 5z"/><path fill="url(#h)" d="m3.6384 5.0004 8.3329 5.9776L20.3588 5z"/><path fill="#f7f5ed" d="m3.6384 5.0004 8.3329 5.9776L20.3588 5z"/><defs><linearGradient id="a" x1="6" x2="18" y1="12" y2="12" gradientUnits="userSpaceOnUse"><stop stop-color="#f8f6ef"/><stop offset="1" stop-color="#e7e4d6"/></linearGradient><linearGradient id="b" x1="6" x2="18" y1="12" y2="12" gradientUnits="userSpaceOnUse"><stop stop-color="#f8f6ef"/><stop offset="1" stop-color="#e7e4d6"/></linearGradient><linearGradient id="c" x1="6" x2="18" y1="12" y2="12" gradientUnits="userSpaceOnUse"><stop stop-color="#f8f6ef"/><stop offset="1" stop-color="#e7e4d6"/></linearGradient><linearGradient id="d" x1="6" x2="18" y1="12" y2="12" gradientUnits="userSpaceOnUse"><stop stop-color="#f8f6ef"/><stop offset="1" stop-color="#e7e4d6"/></linearGradient><linearGradient id="e" x1="6" x2="18" y1="12" y2="12" gradientUnits="userSpaceOnUse"><stop stop-color="#f8f6ef"/><stop offset="1" stop-color="#e7e4d6"/></linearGradient><linearGradient id="f" x1="6" x2="18" y1="12" y2="12" gradientUnits="userSpaceOnUse"><stop stop-color="#f8f6ef"/><stop offset="1" stop-color="#e7e4d6"/></linearGradient><linearGradient id="g" x1="6" x2="18" y1="12" y2="12" gradientUnits="userSpaceOnUse"><stop stop-color="#f8f6ef"/><stop offset="1" stop-color="#e7e4d6"/></linearGradient><linearGradient id="h" x1="6" x2="18" y1="12" y2="12" gradientUnits="userSpaceOnUse"><stop stop-color="#f8f6ef"/><stop offset="1" stop-color="#e7e4d6"/></linearGradient></defs></svg>
